X: 1407
T: Mâhur Seyir
C: Şefik Gürmeriç
O: Turkey
F: http://compmusic.upf.edu/node/140
N: mahur--seyir--sofyan--1--sefik_gurmeric
N: makam= mahur
N: form= seyir
N: usul= sofyan = 4/4
M: 4/4
L: 1/16
K: C ^9/8f   
Q: 1/4=60
%%MIDI tuningsystem comma53
g6f2 e4 f4  | g8 agfe d4  | z2c'2 b2a2 a3g f2g2  | \
w:   |   |   | 
f2g2 abag g8  | 
w:   | 
z4 f2g2 a6a2  | c'2b2 a2g2 f2g2 e4  | \
w:   |   | 
z2e4^d2 e4 a4  | a2g2 f2e2 edd^c d4  | 
w:   |   | 
z2e4f2 g8  | g2=f2 e2d2 c4 e4  | d2g2 =f2e2 e2d2 d2c2  | \
w:   |   |   | 
dcBA B4 z4 c2BA  | 
w:   | 
A6e2 d2c2 B2A2  | G3F E2F2 E4 B4  | A3G F2G2 F2G2 ABAG  | 
w:   |   |   | 
G16  | |


